Suru++-Ubuntu/apps/scalable/gnome-klotski.svg

<svg width="256" height="256" version="1.1" viewBox="0 0 67.73 67.73" xmlns="http://www.w3.org/2000/svg" xmlns:xlink="http://www.w3.org/1999/xlink">
 <defs>
  <linearGradient id="linearGradient1108" x1="296" x2="296" y1="-212" y2="236" gradientUnits="userSpaceOnUse">
   <stop style="stop-color:#ffffff" offset="0"/>
   <stop style="stop-color:#ffffff;stop-opacity:.09803922" offset=".125"/>
   <stop style="stop-color:#000000;stop-opacity:.09803922" offset=".925"/>
   <stop style="stop-color:#000000;stop-opacity:.49803922" offset="1"/>
  </linearGradient>
  <clipPath id="clipPath1082-3-367">
   <path d="M 361.9375,-212 C 507.2348,-212 528,-191.28677 528,-46.125 V 70.125 C 528,215.28618 507.2348,236 361.9375,236 H 214.0625 C 68.7652,236 48,215.28618 48,70.125 V -46.125 C 48,-191.28677 68.7652,-212 214.0625,-212 Z" style="fill:#8c59d9"/>
  </clipPath>
  <filter id="filter974" x="-.02" y="-.03" width="1.046" height="1.05" style="color-interpolation-filters:sRGB">
   <feGaussianBlur stdDeviation="2.32"/>
  </filter>
 </defs>
 <g transform="translate(0,-229.26666)">
  <path transform="matrix(.26458333 0 0 .26458333 -1.8735229e-8 232.67026)" d="m162.53675 5.5680001c72.64865 0 83.03125 10.356615 83.03125 82.937505v58.125005c0 72.58059-10.3826 82.9375-83.03125 82.9375h-73.937496c-72.648654 0-83.031254-10.35691-83.031254-82.9375v-58.125005c0-72.58089 10.3826-82.937505 83.031254-82.937505z" style="filter:url(#filter974);opacity:.2"/>
  <path d="m43.087757 233.61429c19.221622 0 21.968685 2.74019 21.968685 21.94388v15.37891c0 19.20362-2.747063 21.94388-21.968685 21.94388h-19.56263c-19.221622 0-21.968685-2.74026-21.968685-21.94388v-15.37891c0-19.20369 2.747063-21.94388 21.968685-21.94388z" style="fill:#dddddd"/>
  <path transform="matrix(.26458333 0 0 .26458333 0 229.26666)" d="m123.88281 16.431641v112h122v-29.062499c0-9.07261-0.1621-17.172939-0.58789-24.402344-0.21289-3.614703-0.49226-7.011234-0.84961-10.203125-0.35734-3.191891-0.79318-6.178252-1.32031-8.972656-0.52713-2.794405-1.14495-5.396115-1.86719-7.81836s-1.54949-4.664823-2.49219-6.740234c-0.94268-2.075411-2.00097-3.984379-3.18945-5.738281-1.18847-1.753903-2.50721-3.352827-3.96679-4.810547-1.4596-1.457721-3.06037-2.774073-4.81641-3.960938-1.75604-1.186864-3.66632-2.244212-5.74414-3.185547-2.07783-0.941334-4.3231-1.76715-6.74805-2.488281-2.42494-0.72113-5.02877-1.338982-7.82617-1.865234-2.7974-0.526253-5.78919-0.961659-8.98438-1.31836-3.19518-0.3567-6.59459-0.633229-10.21289-0.845703-7.2366-0.424948-15.3447-0.58789-24.42578-0.58789h-38.96875z" style="fill:#edc53f"/>
  <path transform="matrix(.26458333 0 0 .26458333 0 229.26666)" d="m5.8828125 128.43164v29.0625c0 9.07258 0.1620995 17.17296 0.5878906 24.40234 0.2128956 3.6147 0.4922655 7.01124 0.8496094 10.20313 0.3573439 3.19188 0.7931865 6.18021 1.3203125 8.97461s1.1449457 5.39611 1.867187 7.81836c0.722242 2.42224 1.547544 4.66482 2.490235 6.74023s2.002932 3.98243 3.191406 5.73633c1.188475 1.75391 2.505252 3.35478 3.964844 4.8125 1.459591 1.45773 3.062317 2.77212 4.818359 3.95898 1.756042 1.18687 3.666314 2.24617 5.744141 3.1875 2.077826 0.94134 4.323102 1.7652 6.748047 2.48633 2.424944 0.72114 5.028775 1.33898 7.826172 1.86524 2.797396 0.52626 5.78724 0.96165 8.982422 1.31836 3.195181 0.3567 6.596542 0.63518 10.214843 0.84765 7.236602 0.42496 15.3447 0.58594 24.425781 0.58594h34.968748v-112h-118z" style="fill:#edc53f"/>
  <path transform="matrix(.13229167 0 0 .13229167 -4.876802 261.66013)" d="M 361.9375,-212 C 507.2348,-212 528,-191.28677 528,-46.125 V 70.125 C 528,215.28618 507.2348,236 361.9375,236 H 214.0625 C 68.7652,236 48,215.28618 48,70.125 V -46.125 C 48,-191.28677 68.7652,-212 214.0625,-212 Z" clip-path="url(#clipPath1082-3-367)" style="fill:none;opacity:.4;stroke-linecap:round;stroke-linejoin:round;stroke-width:8;stroke:url(#linearGradient1108)"/>
  <rect transform="scale(-1,1)" x="-23.78" y="241.82" width="13.229" height="13.229" rx="1.654" ry="1.654" style="fill:#3775f2"/>
  <rect transform="scale(-1,1)" x="-55.53" y="271.45" width="13.229" height="13.229" rx="1.654" ry="1.654" style="fill:#3775f2"/>
 </g>
</svg>

<svg xmlns="http://www.w3.org/2000/svg" xmlns:xlink="http://www.w3.org/1999/xlink" width="256" height="256" version="1.1" viewBox="0 0 67.73 67.73">
 <defs>
  <linearGradient id="linearGradient1108" x1="296" x2="296" y1="-212" y2="236" gradientUnits="userSpaceOnUse" xlink:href="#linearGradient1013"/>
  <linearGradient id="linearGradient1013">
   <stop offset="0" style="stop-color:#ffffff"/>
   <stop style="stop-color:#ffffff;stop-opacity:0.09803922" offset=".125"/>
   <stop style="stop-color:#000000;stop-opacity:0.09803922" offset=".925"/>
   <stop offset="1" style="stop-color:#000000;stop-opacity:0.49803922"/>
  </linearGradient>
  <clipPath id="clipPath1082-3-367" clipPathUnits="userSpaceOnUse">
   <path d="M 361.9375,-212 C 507.2348,-212 528,-191.28677 528,-46.125 V 70.125 C 528,215.28618 507.2348,236 361.9375,236 H 214.0625 C 68.7652,236 48,215.28618 48,70.125 V -46.125 C 48,-191.28677 68.7652,-212 214.0625,-212 Z" style="fill:#8c59d9"/>
  </clipPath>
  <filter style="color-interpolation-filters:sRGB" id="filter974" width="1.046" height="1.05" x="-.02" y="-.03">
   <feGaussianBlur stdDeviation="2.32"/>
  </filter>
 </defs>
 <g transform="translate(0,-229.26666)">
  <path d="m 162.53675,5.5680001 c 72.64865,0 83.03125,10.3566149 83.03125,82.9375049 v 58.125005 c 0,72.58059 -10.3826,82.9375 -83.03125,82.9375 H 88.599254 C 15.9506,229.56801 5.568,219.2111 5.568,146.63051 V 88.505505 c 0,-72.58089 10.3826,-82.9375049 83.031254,-82.9375049 z" transform="matrix(0.26458333,0,0,0.26458333,-1.8735229e-8,232.67026)" style="opacity:0.2;filter:url(#filter974)"/>
  <path style="fill:#dddddd" d="m 43.087757,233.61429 c 19.221622,0 21.968685,2.74019 21.968685,21.94388 v 15.37891 c 0,19.20362 -2.747063,21.94388 -21.968685,21.94388 h -19.56263 c -19.2216217,0 -21.9686847,-2.74026 -21.9686847,-21.94388 v -15.37891 c 0,-19.20369 2.747063,-21.94388 21.9686847,-21.94388 z"/>
  <path style="fill:#edc53f" d="M 123.88281 16.431641 L 123.88281 128.43164 L 245.88281 128.43164 L 245.88281 99.369141 C 245.88281 90.296531 245.72071 82.196202 245.29492 74.966797 C 245.08203 71.352094 244.80266 67.955563 244.44531 64.763672 C 244.08797 61.571781 243.65213 58.58542 243.125 55.791016 C 242.59787 52.996611 241.98005 50.394901 241.25781 47.972656 C 240.53557 45.550411 239.70832 43.307833 238.76562 41.232422 C 237.82294 39.157011 236.76465 37.248043 235.57617 35.494141 C 234.3877 33.740238 233.06896 32.141314 231.60938 30.683594 C 230.14978 29.225873 228.54901 27.909521 226.79297 26.722656 C 225.03693 25.535792 223.12665 24.478444 221.04883 23.537109 C 218.971 22.595775 216.72573 21.769959 214.30078 21.048828 C 211.87584 20.327698 209.27201 19.709846 206.47461 19.183594 C 203.67721 18.657341 200.68542 18.221935 197.49023 17.865234 C 194.29505 17.508534 190.89564 17.232005 187.27734 17.019531 C 180.04074 16.594583 171.93264 16.431641 162.85156 16.431641 L 123.88281 16.431641 z" transform="matrix(0.26458333,0,0,0.26458333,0,229.26666)"/>
  <path style="fill:#edc53f" d="M 5.8828125 128.43164 L 5.8828125 157.49414 C 5.8828125 166.56672 6.044912 174.6671 6.4707031 181.89648 C 6.6835987 185.51118 6.9629686 188.90772 7.3203125 192.09961 C 7.6776564 195.29149 8.113499 198.27982 8.640625 201.07422 C 9.167751 203.86862 9.7855707 206.47033 10.507812 208.89258 C 11.230054 211.31482 12.055356 213.5574 12.998047 215.63281 C 13.940738 217.70822 15.000979 219.61524 16.189453 221.36914 C 17.377928 223.12305 18.694705 224.72392 20.154297 226.18164 C 21.613888 227.63937 23.216614 228.95376 24.972656 230.14062 C 26.728698 231.32749 28.63897 232.38679 30.716797 233.32812 C 32.794623 234.26946 35.039899 235.09332 37.464844 235.81445 C 39.889788 236.53559 42.493619 237.15343 45.291016 237.67969 C 48.088412 238.20595 51.078256 238.64134 54.273438 238.99805 C 57.468619 239.35475 60.86998 239.63323 64.488281 239.8457 C 71.724883 240.27066 79.832981 240.43164 88.914062 240.43164 L 123.88281 240.43164 L 123.88281 128.43164 L 5.8828125 128.43164 z" transform="matrix(0.26458333,0,0,0.26458333,0,229.26666)"/>
  <path d="M 361.9375,-212 C 507.2348,-212 528,-191.28677 528,-46.125 V 70.125 C 528,215.28618 507.2348,236 361.9375,236 H 214.0625 C 68.7652,236 48,215.28618 48,70.125 V -46.125 C 48,-191.28677 68.7652,-212 214.0625,-212 Z" clip-path="url(#clipPath1082-3-367)" transform="matrix(0.13229167,0,0,0.13229167,-4.876802,261.66013)" style="opacity:0.4;fill:none;stroke:url(#linearGradient1108);stroke-width:8;stroke-linecap:round;stroke-linejoin:round"/>
  <rect style="fill:#3775f2" width="13.229" height="13.229" x="-23.78" y="241.82" rx="1.654" ry="1.654" transform="scale(-1,1)"/>
  <rect width="13.229" height="13.229" x="-55.53" y="271.45" rx="1.654" ry="1.654" transform="scale(-1,1)" style="fill:#3775f2"/>
 </g>
</svg>
